icons/modern/peanuts.svg

<svg width="32" height="32" viewBox="0 0 32 32" fill="none" xmlns="http://www.w3.org/2000/svg">
<path d="M7.81276 29.7356C6.44227 29.4097 4.90778 28.4144 4.29868 27.8506C3.38501 26.8641 2.29565 25.0671 2.04966 22.6712C1.80368 20.2754 2.50649 19.1479 3.38502 17.4567C4.26354 15.7654 6.70303 14.0846 8.94174 13.9637C11.166 13.8435 11.9117 13.3752 12.7386 12.4788C13.613 11.531 13.8663 10.4585 14.0069 8.83776C14.1474 7.217 15.0404 5.22229 16.8348 3.78292C18.4162 2.51451 20.7169 1.44092 24.1607 2.32176C27.6045 3.20261 29.0027 5.89996 29.5649 7.37978C30.1272 8.8596 30.3933 11.6851 28.7769 14.3981C27.1604 17.1111 24.489 18.0003 22.8374 18.0707C21.1857 18.1412 19.9363 18.866 19.1632 19.7821C18.3901 20.6982 18.2496 21.4381 18.109 23.0588C17.9685 24.6796 17.1778 26.7055 14.8585 28.5024C12.5392 30.2994 9.53904 30.1461 7.81276 29.7356Z" fill="url(#paint0_linear_18_29433)"/>
<path d="M7.81276 29.7356C6.44227 29.4097 4.90778 28.4144 4.29868 27.8506C3.38501 26.8641 2.29565 25.0671 2.04966 22.6712C1.80368 20.2754 2.50649 19.1479 3.38502 17.4567C4.26354 15.7654 6.70303 14.0846 8.94174 13.9637C11.166 13.8435 11.9117 13.3752 12.7386 12.4788C13.613 11.531 13.8663 10.4585 14.0069 8.83776C14.1474 7.217 15.0404 5.22229 16.8348 3.78292C18.4162 2.51451 20.7169 1.44092 24.1607 2.32176C27.6045 3.20261 29.0027 5.89996 29.5649 7.37978C30.1272 8.8596 30.3933 11.6851 28.7769 14.3981C27.1604 17.1111 24.489 18.0003 22.8374 18.0707C21.1857 18.1412 19.9363 18.866 19.1632 19.7821C18.3901 20.6982 18.2496 21.4381 18.109 23.0588C17.9685 24.6796 17.1778 26.7055 14.8585 28.5024C12.5392 30.2994 9.53904 30.1461 7.81276 29.7356Z" fill="url(#paint1_radial_18_29433)"/>
<path d="M7.81276 29.7356C6.44227 29.4097 4.90778 28.4144 4.29868 27.8506C3.38501 26.8641 2.29565 25.0671 2.04966 22.6712C1.80368 20.2754 2.50649 19.1479 3.38502 17.4567C4.26354 15.7654 6.70303 14.0846 8.94174 13.9637C11.166 13.8435 11.9117 13.3752 12.7386 12.4788C13.613 11.531 13.8663 10.4585 14.0069 8.83776C14.1474 7.217 15.0404 5.22229 16.8348 3.78292C18.4162 2.51451 20.7169 1.44092 24.1607 2.32176C27.6045 3.20261 29.0027 5.89996 29.5649 7.37978C30.1272 8.8596 30.3933 11.6851 28.7769 14.3981C27.1604 17.1111 24.489 18.0003 22.8374 18.0707C21.1857 18.1412 19.9363 18.866 19.1632 19.7821C18.3901 20.6982 18.2496 21.4381 18.109 23.0588C17.9685 24.6796 17.1778 26.7055 14.8585 28.5024C12.5392 30.2994 9.53904 30.1461 7.81276 29.7356Z" fill="url(#paint2_radial_18_29433)"/>
<path d="M7.81276 29.7356C6.44227 29.4097 4.90778 28.4144 4.29868 27.8506C3.38501 26.8641 2.29565 25.0671 2.04966 22.6712C1.80368 20.2754 2.50649 19.1479 3.38502 17.4567C4.26354 15.7654 6.70303 14.0846 8.94174 13.9637C11.166 13.8435 11.9117 13.3752 12.7386 12.4788C13.613 11.531 13.8663 10.4585 14.0069 8.83776C14.1474 7.217 15.0404 5.22229 16.8348 3.78292C18.4162 2.51451 20.7169 1.44092 24.1607 2.32176C27.6045 3.20261 29.0027 5.89996 29.5649 7.37978C30.1272 8.8596 30.3933 11.6851 28.7769 14.3981C27.1604 17.1111 24.489 18.0003 22.8374 18.0707C21.1857 18.1412 19.9363 18.866 19.1632 19.7821C18.3901 20.6982 18.2496 21.4381 18.109 23.0588C17.9685 24.6796 17.1778 26.7055 14.8585 28.5024C12.5392 30.2994 9.53904 30.1461 7.81276 29.7356Z" fill="url(#paint3_radial_18_29433)"/>
<path d="M7.81276 29.7356C6.44227 29.4097 4.90778 28.4144 4.29868 27.8506C3.38501 26.8641 2.29565 25.0671 2.04966 22.6712C1.80368 20.2754 2.50649 19.1479 3.38502 17.4567C4.26354 15.7654 6.70303 14.0846 8.94174 13.9637C11.166 13.8435 11.9117 13.3752 12.7386 12.4788C13.613 11.531 13.8663 10.4585 14.0069 8.83776C14.1474 7.217 15.0404 5.22229 16.8348 3.78292C18.4162 2.51451 20.7169 1.44092 24.1607 2.32176C27.6045 3.20261 29.0027 5.89996 29.5649 7.37978C30.1272 8.8596 30.3933 11.6851 28.7769 14.3981C27.1604 17.1111 24.489 18.0003 22.8374 18.0707C21.1857 18.1412 19.9363 18.866 19.1632 19.7821C18.3901 20.6982 18.2496 21.4381 18.109 23.0588C17.9685 24.6796 17.1778 26.7055 14.8585 28.5024C12.5392 30.2994 9.53904 30.1461 7.81276 29.7356Z" fill="url(#paint4_radial_18_29433)"/>
<path d="M2.80533 20.9844C2.74822 21.1782 2.53298 21.0637 2.4056 20.9228C2.30627 20.8328 2.19475 20.6277 2.25186 20.2974C2.30896 19.967 2.42756 19.5222 2.5857 19.1214C2.74383 18.7206 3.15673 17.9455 3.20505 17.8618C3.25337 17.7781 3.32365 17.7429 3.42907 17.8178C3.51341 17.8777 3.66042 18.06 3.72338 18.1437C3.8903 18.3375 3.8288 18.5709 3.75852 18.6854C3.72432 18.7411 3.64853 18.9032 3.56048 19.0915C3.46758 19.2901 3.36103 19.518 3.27533 19.6808C3.10841 19.9979 2.86243 20.7906 2.80533 20.9844Z" fill="#89634B"/>
<path d="M7.29458 26.1418C7.59328 26.3796 7.94117 26.4607 8.1731 26.2211C8.51573 25.8922 9.23611 25.1905 9.37668 25.0143C9.55238 24.7941 9.75444 24.477 9.49088 24.2127C9.22733 23.9485 8.19946 22.9179 7.9359 22.6448C7.67235 22.3718 7.32972 22.4158 7.13645 22.6008C6.94318 22.7858 6.0998 23.6138 5.92409 23.8252L5.90459 23.8486C5.73178 24.0554 5.52308 24.3052 5.83624 24.6532C6.09628 24.9421 6.91682 25.766 7.29458 26.1418Z" fill="url(#paint5_radial_18_29433)"/>
<path d="M14.8761 24.4329C14.5599 24.7676 14.3139 24.565 14.0415 24.2656C13.8257 24.0221 13.4545 23.654 13.1506 23.3526C13.0587 23.2615 12.9729 23.1764 12.8995 23.1028C12.5832 22.7857 12.9083 22.3189 13.1279 22.0899C13.3475 21.8608 13.8483 21.0945 14.1206 20.6717C14.3689 20.2863 14.6171 20.501 14.8188 20.6755C14.8383 20.6924 14.8575 20.709 14.8761 20.7246C14.9876 20.8177 15.2168 21.0657 15.4522 21.3206C15.6623 21.548 15.8774 21.7808 16.0182 21.9137C16.3169 22.1956 16.1764 22.6624 16.0182 22.9355C15.8601 23.2085 15.1924 24.0982 14.8761 24.4329Z" fill="url(#paint6_radial_18_29433)"/>
<path d="M8.83274 18.994C9.10863 19.2385 9.40377 19.38 9.75665 19.1098C9.94075 18.9688 10.0794 18.8559 10.2028 18.7554C10.3156 18.6636 10.4163 18.5816 10.5266 18.4987C10.6429 18.4112 10.7983 18.309 10.9461 18.2119C11.0916 18.1162 11.2298 18.0253 11.3158 17.9583C11.489 17.8232 11.675 17.5401 11.4954 17.3279C11.3158 17.1156 10.379 16.1892 10.1929 16.0605C10.0069 15.9319 9.62191 15.6681 9.12787 16.022C9.04691 16.0799 8.9587 16.1426 8.86696 16.2078C8.39892 16.5402 7.83878 16.9381 7.67785 17.1156C7.48536 17.3279 7.33779 17.5723 7.60727 17.8168C7.87674 18.0612 8.5376 18.7045 8.83274 18.994Z" fill="url(#paint7_radial_18_29433)"/>
<path d="M29.3098 10.5568C29.3669 10.363 29.5821 10.4775 29.7095 10.6185C29.8088 10.7084 29.9203 10.9136 29.8632 11.2439C29.8061 11.5742 29.6875 12.019 29.5294 12.4198C29.3713 12.8206 28.9583 13.5957 28.91 13.6794C28.8617 13.7631 28.7914 13.7983 28.686 13.7234C28.6017 13.6635 28.4547 13.4812 28.3917 13.3975C28.2248 13.2037 28.2863 12.9703 28.3566 12.8558C28.3908 12.8001 28.4666 12.638 28.5546 12.4497C28.6475 12.2511 28.7541 12.0232 28.8397 11.8605C29.0067 11.5434 29.2527 10.7506 29.3098 10.5568Z" fill="#B67E54"/>
<path d="M21.5726 2.31238C21.777 2.45944 21.9637 2.61095 21.9103 2.7179C21.857 2.82485 21.6392 2.94517 21.2526 3.06549C20.8659 3.18581 20.0925 3.53339 19.8214 3.70273C19.5503 3.87206 19.1548 3.98347 18.9592 3.82305C18.8631 3.74417 18.768 3.65452 18.6851 3.57634C18.5994 3.49552 18.5267 3.42696 18.4792 3.39525C18.3859 3.33286 18.3459 3.24374 18.4792 3.11451C18.6125 2.98527 19.4214 2.55302 19.6837 2.4327C19.9459 2.31239 20.617 2.1074 20.897 2.09403C21.177 2.08066 21.3681 2.16533 21.5726 2.31238Z" fill="url(#paint8_radial_18_29433)"/>
<path d="M25.1216 5.52715C24.8229 5.28932 24.475 5.20829 24.2431 5.44788C23.9005 5.77672 23.1801 6.47847 23.0395 6.65464C22.8638 6.87485 22.6618 7.19195 22.9253 7.4562C23.1893 7.7209 24.2168 8.75114 24.4803 9.02411C24.7438 9.29717 25.0865 9.25313 25.2797 9.06815C25.473 8.88317 26.3164 8.05518 26.4921 7.84378L26.5116 7.8204C26.6844 7.61354 26.8931 7.36372 26.58 7.01578C26.3199 6.72686 25.4994 5.90298 25.1216 5.52715Z" fill="url(#paint9_radial_18_29433)"/>
<path d="M17.6447 6.84842C17.9609 6.5137 18.2069 6.71629 18.4793 7.01578C18.6952 7.25931 19.0665 7.62752 19.3704 7.92891C19.4623 8.01996 19.548 8.10492 19.6213 8.1785C19.9376 8.4956 19.6125 8.96245 19.3929 9.19147C19.1733 9.42049 18.6725 10.1868 18.4002 10.6096C18.1519 10.995 17.9037 10.7803 17.702 10.6059C17.6826 10.5891 17.6632 10.5723 17.6447 10.5568C17.5332 10.4637 17.304 10.2156 17.0686 9.96075C16.8585 9.73335 16.6434 9.50055 16.5026 9.36764C16.2039 9.08577 16.3445 8.61892 16.5026 8.34586C16.6607 8.07279 17.3284 7.18314 17.6447 6.84842Z" fill="url(#paint10_radial_18_29433)"/>
<path d="M24.0543 12.3468C23.7784 12.1023 23.4833 11.9608 23.1304 12.231C22.9462 12.372 22.8075 12.4849 22.6841 12.5854C22.5711 12.6774 22.4708 12.7591 22.3604 12.8421C22.2441 12.9296 22.0887 13.0317 21.941 13.1289C21.7954 13.2246 21.6572 13.3154 21.5713 13.3825C21.398 13.5176 21.212 13.8006 21.3916 14.0129C21.5713 14.2252 22.508 15.1516 22.6941 15.2802C22.8801 15.4089 23.2651 15.6726 23.7591 15.3188C23.8401 15.2608 23.9283 15.1982 24.02 15.133C24.4881 14.8006 25.0482 14.4027 25.2092 14.2252C25.4017 14.0129 25.5492 13.7685 25.2797 13.524C25.0103 13.2795 24.3494 12.6362 24.0543 12.3468Z" fill="url(#paint11_radial_18_29433)"/>
<path d="M15.6932 17.5975C16.0007 17.8882 16.4136 17.9499 16.6508 17.7121C16.8882 17.474 17.8192 16.5405 18.0037 16.3644C18.1882 16.1882 18.4517 15.783 18.1355 15.4483C18.0661 15.3749 17.9744 15.2761 17.8703 15.1639C17.4996 14.7646 16.9718 14.1963 16.7386 14.0037C16.4399 13.7571 16.071 13.6602 15.8162 13.9068C15.5614 14.1534 14.6741 15.0343 14.4633 15.2721C14.2524 15.5099 13.9801 15.8535 14.3315 16.2234C14.609 16.5155 15.0727 16.9782 15.4328 17.3375C15.5288 17.4332 15.6174 17.5216 15.6932 17.5975Z" fill="url(#paint12_radial_18_29433)"/>
<defs>
<linearGradient id="paint0_linear_18_29433" x1="27.8125" y1="4.0625" x2="4.125" y2="27.625" gradientUnits="userSpaceOnUse">
<stop stop-color="#BA9570"/>
<stop offset="0.296238" stop-color="#BF9773"/>
<stop offset="0.440372" stop-color="#B88C6D"/>
<stop offset="0.51714" stop-color="#BA8C65"/>
<stop offset="0.693033" stop-color="#B68D67"/>
<stop offset="0.931168" stop-color="#AD785D"/>
<stop offset="1" stop-color="#AD785D"/>
</linearGradient>
<radialGradient id="paint1_radial_18_29433" cx="0" cy="0" r="1" gradientUnits="userSpaceOnUse" gradientTransform="translate(29.125 6.375) rotate(164.795) scale(12.6296 12.6296)">
<stop stop-color="#F8D3A8"/>
<stop offset="1" stop-color="#F8D3A8" stop-opacity="0"/>
</radialGradient>
<radialGradient id="paint2_radial_18_29433" cx="0" cy="0" r="1" gradientUnits="userSpaceOnUse" gradientTransform="translate(21.5625 17.4375) rotate(109.041) scale(7.4713 10.8977)">
<stop stop-color="#CF828C"/>
<stop offset="1" stop-color="#CF838A" stop-opacity="0"/>
</radialGradient>
<radialGradient id="paint3_radial_18_29433" cx="0" cy="0" r="1" gradientUnits="userSpaceOnUse" gradientTransform="translate(13.9375 21) rotate(126.87) scale(6.25 10.6485)">
<stop stop-color="#DEA988"/>
<stop offset="1" stop-color="#DDA889" stop-opacity="0"/>
</radialGradient>
<radialGradient id="paint4_radial_18_29433" cx="0" cy="0" r="1" gradientUnits="userSpaceOnUse" gradientTransform="translate(3.1875 32.1875) rotate(-21.4358) scale(20.0091 11.622)">
<stop offset="0.205466" stop-color="#C67084"/>
<stop offset="1" stop-color="#D08679" stop-opacity="0"/>
</radialGradient>
<radialGradient id="paint5_radial_18_29433" cx="0" cy="0" r="1" gradientUnits="userSpaceOnUse" gradientTransform="translate(8.1875 24.75) rotate(101.929) scale(2.61906 2.63817)">
<stop stop-color="#B76C5B"/>
<stop offset="1" stop-color="#A56443"/>
</radialGradient>
<radialGradient id="paint6_radial_18_29433" cx="0" cy="0" r="1" gradientUnits="userSpaceOnUse" gradientTransform="translate(14.4806 21.4375) rotate(90) scale(3.16861 2.61555)">
<stop stop-color="#CE9269"/>
<stop offset="1" stop-color="#C27753"/>
</radialGradient>
<radialGradient id="paint7_radial_18_29433" cx="0" cy="0" r="1" gradientUnits="userSpaceOnUse" gradientTransform="translate(9.9375 17.5506) rotate(112.87) scale(2.25142 2.71122)">
<stop offset="0.128406" stop-color="#B37C49"/>
<stop offset="1" stop-color="#AD774B"/>
</radialGradient>
<radialGradient id="paint8_radial_18_29433" cx="0" cy="0" r="1" gradientUnits="userSpaceOnUse" gradientTransform="translate(18.3936 3.43753) rotate(-8.5875) scale(2.95204 5.7566)">
<stop stop-color="#986C4C"/>
<stop offset="1" stop-color="#AE7B50"/>
</radialGradient>
<radialGradient id="paint9_radial_18_29433" cx="0" cy="0" r="1" gradientUnits="userSpaceOnUse" gradientTransform="translate(26.0625 7.26071) rotate(120.505) scale(3.32443 3.34868)">
<stop offset="0.219099" stop-color="#D09A6C"/>
<stop offset="1" stop-color="#BD8253"/>
</radialGradient>
<radialGradient id="paint10_radial_18_29433" cx="0" cy="0" r="1" gradientUnits="userSpaceOnUse" gradientTransform="translate(16.3274 9.25) rotate(-13.5626) scale(5.06381 4.17996)">
<stop stop-color="#955E3B"/>
<stop offset="0.674784" stop-color="#A3683F"/>
</radialGradient>
<radialGradient id="paint11_radial_18_29433" cx="0" cy="0" r="1" gradientUnits="userSpaceOnUse" gradientTransform="translate(24.0625 13.7902) rotate(129.979) scale(3.21007 3.86565)">
<stop stop-color="#B36E52"/>
<stop offset="1" stop-color="#AC6256"/>
</radialGradient>
<radialGradient id="paint12_radial_18_29433" cx="0" cy="0" r="1" gradientUnits="userSpaceOnUse" gradientTransform="translate(14.6875 17.4375) rotate(-38.0343) scale(4.56476 4.59307)">
<stop offset="0.136367" stop-color="#BC8059"/>
<stop offset="1" stop-color="#A1613E"/>
</radialGradient>
</defs>
</svg>

<svg width="32" height="32" fill="none" xmlns="http://www.w3.org/2000/svg"><path d="M7.813 29.736c-1.37-.326-2.905-1.322-3.514-1.885-.914-.987-2.003-2.784-2.25-5.18-.245-2.396.457-3.523 1.336-5.214.879-1.692 3.318-3.372 5.557-3.493 2.224-.12 2.97-.589 3.797-1.485.874-.948 1.127-2.02 1.268-3.641.14-1.621 1.033-3.616 2.828-5.055 1.581-1.268 3.882-2.342 7.326-1.461 3.444.88 4.842 3.578 5.404 5.058.562 1.48.828 4.305-.788 7.018-1.617 2.713-4.288 3.602-5.94 3.673-1.651.07-2.9.795-3.674 1.711-.773.916-.913 1.656-1.054 3.277-.14 1.62-.931 3.646-3.25 5.443-2.32 1.797-5.32 1.644-7.046 1.234Z" fill="url(#a)"/><path d="M7.813 29.736c-1.37-.326-2.905-1.322-3.514-1.885-.914-.987-2.003-2.784-2.25-5.18-.245-2.396.457-3.523 1.336-5.214.879-1.692 3.318-3.372 5.557-3.493 2.224-.12 2.97-.589 3.797-1.485.874-.948 1.127-2.02 1.268-3.641.14-1.621 1.033-3.616 2.828-5.055 1.581-1.268 3.882-2.342 7.326-1.461 3.444.88 4.842 3.578 5.404 5.058.562 1.48.828 4.305-.788 7.018-1.617 2.713-4.288 3.602-5.94 3.673-1.651.07-2.9.795-3.674 1.711-.773.916-.913 1.656-1.054 3.277-.14 1.62-.931 3.646-3.25 5.443-2.32 1.797-5.32 1.644-7.046 1.234Z" fill="url(#b)"/><path d="M7.813 29.736c-1.37-.326-2.905-1.322-3.514-1.885-.914-.987-2.003-2.784-2.25-5.18-.245-2.396.457-3.523 1.336-5.214.879-1.692 3.318-3.372 5.557-3.493 2.224-.12 2.97-.589 3.797-1.485.874-.948 1.127-2.02 1.268-3.641.14-1.621 1.033-3.616 2.828-5.055 1.581-1.268 3.882-2.342 7.326-1.461 3.444.88 4.842 3.578 5.404 5.058.562 1.48.828 4.305-.788 7.018-1.617 2.713-4.288 3.602-5.94 3.673-1.651.07-2.9.795-3.674 1.711-.773.916-.913 1.656-1.054 3.277-.14 1.62-.931 3.646-3.25 5.443-2.32 1.797-5.32 1.644-7.046 1.234Z" fill="url(#c)"/><path d="M7.813 29.736c-1.37-.326-2.905-1.322-3.514-1.885-.914-.987-2.003-2.784-2.25-5.18-.245-2.396.457-3.523 1.336-5.214.879-1.692 3.318-3.372 5.557-3.493 2.224-.12 2.97-.589 3.797-1.485.874-.948 1.127-2.02 1.268-3.641.14-1.621 1.033-3.616 2.828-5.055 1.581-1.268 3.882-2.342 7.326-1.461 3.444.88 4.842 3.578 5.404 5.058.562 1.48.828 4.305-.788 7.018-1.617 2.713-4.288 3.602-5.94 3.673-1.651.07-2.9.795-3.674 1.711-.773.916-.913 1.656-1.054 3.277-.14 1.62-.931 3.646-3.25 5.443-2.32 1.797-5.32 1.644-7.046 1.234Z" fill="url(#d)"/><path d="M7.813 29.736c-1.37-.326-2.905-1.322-3.514-1.885-.914-.987-2.003-2.784-2.25-5.18-.245-2.396.457-3.523 1.336-5.214.879-1.692 3.318-3.372 5.557-3.493 2.224-.12 2.97-.589 3.797-1.485.874-.948 1.127-2.02 1.268-3.641.14-1.621 1.033-3.616 2.828-5.055 1.581-1.268 3.882-2.342 7.326-1.461 3.444.88 4.842 3.578 5.404 5.058.562 1.48.828 4.305-.788 7.018-1.617 2.713-4.288 3.602-5.94 3.673-1.651.07-2.9.795-3.674 1.711-.773.916-.913 1.656-1.054 3.277-.14 1.62-.931 3.646-3.25 5.443-2.32 1.797-5.32 1.644-7.046 1.234Z" fill="url(#e)"/><path d="M2.805 20.984c-.057.194-.272.08-.4-.061-.099-.09-.21-.295-.153-.626.057-.33.176-.775.334-1.176.158-.4.57-1.175.62-1.26.047-.083.118-.118.223-.043.084.06.231.242.294.326.167.194.106.427.036.541-.035.056-.11.218-.199.407-.092.198-.199.426-.285.589-.167.317-.413 1.11-.47 1.303Z" fill="#89634B"/><path d="M7.295 26.142c.298.238.646.319.878.08.343-.33 1.063-1.032 1.204-1.208.175-.22.377-.537.114-.801a259.65 259.65 0 0 1-1.555-1.568c-.264-.273-.606-.23-.8-.044-.193.185-1.036 1.013-1.212 1.224l-.02.024c-.172.206-.38.456-.068.804.26.29 1.08 1.113 1.459 1.489Z" fill="url(#f)"/><path d="M14.876 24.433c-.316.335-.562.132-.835-.167-.215-.244-.587-.612-.89-.913a65.044 65.044 0 0 1-.252-.25c-.316-.317.01-.784.229-1.013.22-.23.72-.995.993-1.418.248-.386.496-.171.698.003l.057.05c.112.093.34.34.576.596.21.227.425.46.566.593.299.282.158.748 0 1.021-.158.274-.826 1.163-1.142 1.498Z" fill="url(#g)"/><path d="M8.833 18.994c.276.244.57.386.924.116.184-.141.322-.254.446-.355.113-.091.213-.173.324-.256a8.72 8.72 0 0 1 .42-.287c.145-.096.283-.187.369-.254.173-.135.359-.418.18-.63-.18-.212-1.117-1.139-1.303-1.267-.186-.13-.571-.393-1.065-.039l-.261.186c-.468.332-1.028.73-1.19.908-.192.212-.34.456-.07.7.27.245.93.889 1.226 1.178Z" fill="url(#h)"/><path d="M29.31 10.557c.057-.194.272-.08.4.061.099.09.21.296.153.626-.057.33-.175.775-.334 1.176-.158.4-.57 1.176-.619 1.26-.048.083-.119.118-.224.043-.084-.06-.231-.242-.294-.325-.167-.194-.106-.428-.035-.542.034-.056.11-.218.198-.406.093-.199.2-.427.285-.59.167-.317.413-1.11.47-1.303Z" fill="#B67E54"/><path d="M21.573 2.312c.204.147.39.299.337.406-.053.107-.27.227-.657.347-.387.12-1.16.468-1.432.638-.27.17-.666.28-.862.12a5.454 5.454 0 0 1-.274-.247 2.094 2.094 0 0 0-.206-.18c-.093-.063-.133-.152 0-.281.134-.13.942-.562 1.205-.682.262-.12.933-.326 1.213-.339.28-.013.471.071.676.218Z" fill="url(#i)"/><path d="M25.122 5.527c-.3-.238-.647-.319-.879-.08-.342.33-1.063 1.031-1.203 1.208-.176.22-.378.537-.115.801a263.08 263.08 0 0 1 1.555 1.568c.264.273.607.23.8.044.193-.185 1.036-1.013 1.212-1.224l.02-.024c.172-.206.381-.456.068-.804a62.088 62.088 0 0 0-1.458-1.489Z" fill="url(#j)"/><path d="M17.645 6.848c.316-.334.562-.132.834.168.216.243.588.612.891.913l.251.25c.317.317-.008.783-.228 1.012-.22.23-.72.996-.993 1.419-.248.385-.496.17-.698-.004l-.057-.05a9.496 9.496 0 0 1-.576-.595c-.21-.228-.426-.46-.566-.593-.3-.282-.159-.75 0-1.022.158-.273.825-1.163 1.142-1.498Z" fill="url(#k)"/><path d="M24.054 12.347c-.276-.245-.57-.386-.924-.116-.184.141-.322.254-.446.354-.113.092-.213.174-.324.257-.116.088-.271.19-.419.287-.146.096-.284.186-.37.254-.173.135-.359.418-.18.63.18.212 1.117 1.139 1.303 1.267.186.129.571.393 1.065.039l.261-.186c.468-.332 1.028-.73 1.19-.908.192-.212.34-.457.07-.701-.27-.244-.93-.888-1.226-1.177Z" fill="url(#l)"/><path d="M15.693 17.598c.308.29.72.352.958.114.237-.238 1.168-1.171 1.353-1.348.184-.176.448-.581.131-.916a46.08 46.08 0 0 1-.265-.284c-.37-.4-.898-.968-1.131-1.16-.3-.247-.668-.344-.923-.097a49.134 49.134 0 0 0-1.353 1.365c-.21.238-.483.582-.131.951.277.293.74.755 1.1 1.114l.261.26Z" fill="url(#m)"/><defs><radialGradient id="b" cx="0" cy="0" r="1" gradientUnits="userSpaceOnUse" gradientTransform="rotate(164.795 14.137 5.131) scale(12.6296)"><stop stop-color="#F8D3A8"/><stop offset="1" stop-color="#F8D3A8" stop-opacity="0"/></radialGradient><radialGradient id="c" cx="0" cy="0" r="1" gradientUnits="userSpaceOnUse" gradientTransform="matrix(-2.43747 7.06251 -10.30144 -3.55532 21.563 17.438)"><stop stop-color="#CF828C"/><stop offset="1" stop-color="#CF838A" stop-opacity="0"/></radialGradient><radialGradient id="d" cx="0" cy="0" r="1" gradientUnits="userSpaceOnUse" gradientTransform="matrix(-3.75 5 -8.51879 -6.38912 13.938 21)"><stop stop-color="#DEA988"/><stop offset="1" stop-color="#DDA889" stop-opacity="0"/></radialGradient><radialGradient id="e" cx="0" cy="0" r="1" gradientUnits="userSpaceOnUse" gradientTransform="matrix(18.62502 -7.3125 4.24736 10.81808 3.188 32.188)"><stop offset=".205" stop-color="#C67084"/><stop offset="1" stop-color="#D08679" stop-opacity="0"/></radialGradient><radialGradient id="f" cx="0" cy="0" r="1" gradientUnits="userSpaceOnUse" gradientTransform="matrix(-.54136 2.5625 -2.5812 -.5453 8.188 24.75)"><stop stop-color="#B76C5B"/><stop offset="1" stop-color="#A56443"/></radialGradient><radialGradient id="g" cx="0" cy="0" r="1" gradientUnits="userSpaceOnUse" gradientTransform="matrix(0 3.16861 -2.61555 0 14.48 21.438)"><stop stop-color="#CE9269"/><stop offset="1" stop-color="#C27753"/></radialGradient><radialGradient id="h" cx="0" cy="0" r="1" gradientUnits="userSpaceOnUse" gradientTransform="matrix(-.875 2.07443 -2.49809 -1.0537 9.938 17.55)"><stop offset=".128" stop-color="#B37C49"/><stop offset="1" stop-color="#AD774B"/></radialGradient><radialGradient id="i" cx="0" cy="0" r="1" gradientUnits="userSpaceOnUse" gradientTransform="matrix(2.91894 -.4408 .85957 5.69206 18.394 3.438)"><stop stop-color="#986C4C"/><stop offset="1" stop-color="#AE7B50"/></radialGradient><radialGradient id="j" cx="0" cy="0" r="1" gradientUnits="userSpaceOnUse" gradientTransform="matrix(-1.68753 2.86428 -2.88517 -1.69984 26.063 7.26)"><stop offset=".219" stop-color="#D09A6C"/><stop offset="1" stop-color="#BD8253"/></radialGradient><radialGradient id="k" cx="0" cy="0" r="1" gradientUnits="userSpaceOnUse" gradientTransform="matrix(4.9226 -1.1875 .98023 4.0634 16.327 9.25)"><stop stop-color="#955E3B"/><stop offset=".675" stop-color="#A3683F"/></radialGradient><radialGradient id="l" cx="0" cy="0" r="1" gradientUnits="userSpaceOnUse" gradientTransform="rotate(129.979 8.814 12.508) scale(3.21007 3.86565)"><stop stop-color="#B36E52"/><stop offset="1" stop-color="#AC6256"/></radialGradient><radialGradient id="m" cx="0" cy="0" r="1" gradientUnits="userSpaceOnUse" gradientTransform="matrix(3.5954 -2.8125 2.82994 3.6177 14.688 17.438)"><stop offset=".136" stop-color="#BC8059"/><stop offset="1" stop-color="#A1613E"/></radialGradient><linearGradient id="a" x1="27.813" y1="4.063" x2="4.125" y2="27.625" gradientUnits="userSpaceOnUse"><stop stop-color="#BA9570"/><stop offset=".296" stop-color="#BF9773"/><stop offset=".44" stop-color="#B88C6D"/><stop offset=".517" stop-color="#BA8C65"/><stop offset=".693" stop-color="#B68D67"/><stop offset=".931" stop-color="#AD785D"/><stop offset="1" stop-color="#AD785D"/></linearGradient></defs></svg>
